X: 0028
T: Vals efter G\aards Jonas
O: efter Frans Jakobsson
%R: waltz
B: Paul B\"ackstr\"om's "L\aatar fr\aan Dalarna" collection" 1974
Z: 2022 John Chambers <jc:trillian.mit.edu>
M: 3/4
L: 1/8
K: D
%%slurgraces 1
%%graceslurs 1
% - - - - - - - - - -
FG |\
A2 (3(Bcd) (e<f) | [f4d4] (FG) | A2(B<A) (GF) | [E4A,4] (FG) ||\
A2 (3(Bcd) (e<f) | (g2 (3(fgf)) (ed) | {d}c2 (c<A) (B<c) | d4 :|
|: de |\
[f2A2] [e2A2] [fA][fA] | {f}g2 B2 g2 | a2 ({b}a^g)ab | a4 g2 ||\
Tf2 e<d e<f | Tg2 B2 e2 | {d}c2 ({d}cA)Bc | {c}d4 :|
% - - - - - - - - - -
N: Trad. Arvid B\"ackman
N: Uppt. Carl Gustav F\"arje o. Paul B\"ackstr\"om

%%sep 2 1 500
%%sep 1 1 500

